!!!OTL: "Die Liebste" AM BERG LIEGT A DORF
!!!ARE: Europa, Mitteleuropa, Steiermark
!!!SCT: Z1211
!!!YEM: Copyright 1995, estate of Helmut Schaffrath.
**kern
*ICvox
*Ivox
*M3/4
*k[b-e-a-]
*E-:
{4e-
=1
8f
8e-
8d
8e-
8f
8d
=2
4e-}
{8g
8b-
4e-
=3
8cc
8b-
8an
8b-
8cc
8an
=4
4b-}
{8dd
8ff
4b-
=5
8b-
8aa-
4.ff
8b-
=6
8b-
8gg
4.ee-}
{8g
=7
4cc
8a-
8g
8a-
8d
=8
4e-
4r}
==
!!!AGN: Liebes - Lied
!!!ONB: ESAC (Essen Associative Code) Database: ZUCCAL
!!!AMT: simple triple
!!!AIN: vox
!!!EED: Helmut Schaffrath
!!!EEV: 1.0
*-
